src/view/frontend/web/svg/heroicons/outline/view-grid-add.svg

<svg  viewBox="0 0 24 24" fill="none" stroke="currentColor" xmlns="http://www.w3.org/2000/svg">
<path d="M17 14V20M14 17H20M6 10H8C9.10457 10 10 9.10457 10 8V6C10 4.89543 9.10457 4 8 4H6C4.89543 4 4 4.89543 4 6V8C4 9.10457 4.89543 10 6 10ZM16 10H18C19.1046 10 20 9.10457 20 8V6C20 4.89543 19.1046 4 18 4H16C14.8954 4 14 4.89543 14 6V8C14 9.10457 14.8954 10 16 10ZM6 20H8C9.10457 20 10 19.1046 10 18V16C10 14.8954 9.10457 14 8 14H6C4.89543 14 4 14.8954 4 16V18C4 19.1046 4.89543 20 6 20Z"  stroke-width="2" stroke-linecap="round" stroke-linejoin="round"/>
</svg>

<svg xmlns="http://www.w3.org/2000/svg" fill="none" stroke="currentColor" viewBox="0 0 24 24"><path stroke-linecap="round" stroke-linejoin="round" stroke-width="2" d="M17 14v6m-3-3h6M6 10h2a2 2 0 0 0 2-2V6a2 2 0 0 0-2-2H6a2 2 0 0 0-2 2v2a2 2 0 0 0 2 2Zm10 0h2a2 2 0 0 0 2-2V6a2 2 0 0 0-2-2h-2a2 2 0 0 0-2 2v2a2 2 0 0 0 2 2ZM6 20h2a2 2 0 0 0 2-2v-2a2 2 0 0 0-2-2H6a2 2 0 0 0-2 2v2a2 2 0 0 0 2 2Z"/></svg>
